X: 1
T: The Banshee
R: reel
M: 4/4
L: 1/8
K: Gmaj
|:G2 GD EDEG|AGAB d2 Bd|eged BAGA|BAGE EDDE|G2 GD EDEG|AGAB d2 Bd|eged BAGA|BAGE ED D2:||:ea a2 efgf|eBBA B2 Bd|eB B2 efgf| eBBA B2 Bd|ea a2 efgf|eBBA B2 Bd|eged BAGA|BAGE EDD2:|


Tune 8	Setting 12366

